flaticon/constructions/switch-3.svg

<svg xmlns="http://www.w3.org/2000/svg" width="32" height="32" viewBox="0 0 24 24">
    <path d="M14 10.789062C13.800781 10.789062 13.601562 10.988281 13.601562 11.1875 13.601562 11.429688 13.761719 11.589844 14 11.589844 14.238281 11.589844 14.398438 11.429688 14.398438 11.1875 14.398438 10.949219 14.238281 10.789062 14 10.789062zM11.601562 10.789062C11.398438 10.789062 11.199219 10.988281 11.199219 11.1875 11.199219 11.429688 11.359375 11.589844 11.601562 11.589844 11.839844 11.589844 12 11.429688 12 11.1875 12 10.949219 11.839844 10.789062 11.601562 10.789062zM9.199219 10.789062C9 10.789062 8.800781 10.988281 8.800781 11.1875 8.800781 11.429688 8.960938 11.589844 9.199219 11.589844 9.441406 11.589844 9.601562 11.429688 9.601562 11.1875 9.601562 10.949219 9.441406 10.789062 9.199219 10.789062zM15.199219 9.589844C15 9.589844 14.800781 9.789062 14.800781 9.988281 14.800781 10.226562 14.960938 10.386719 15.199219 10.386719 15.441406 10.386719 15.601562 10.226562 15.601562 9.988281 15.601562 9.746094 15.441406 9.589844 15.199219 9.589844zM12.800781 9.589844C12.601562 9.589844 12.398438 9.789062 12.398438 9.988281 12.398438 10.226562 12.558594 10.386719 12.800781 10.386719 13.039062 10.386719 13.199219 10.226562 13.199219 9.988281 13.199219 9.746094 13.039062 9.589844 12.800781 9.589844zM15.199219 7.1875C15 7.1875 14.800781 7.386719 14.800781 7.589844 14.800781 7.828125 14.960938 7.988281 15.199219 7.988281 15.441406 7.988281 15.601562 7.828125 15.601562 7.589844 15.601562 7.347656 15.441406 7.1875 15.199219 7.1875zM12.800781 7.1875C12.601562 7.1875 12.398438 7.386719 12.398438 7.589844 12.398438 7.828125 12.558594 7.988281 12.800781 7.988281 13.039062 7.988281 13.199219 7.828125 13.199219 7.589844 13.199219 7.347656 13.039062 7.1875 12.800781 7.1875zM14 8.386719C13.800781 8.386719 13.601562 8.589844 13.601562 8.789062 13.601562 9.027344 13.761719 9.1875 14 9.1875 14.238281 9.1875 14.398438 9.027344 14.398438 8.789062 14.398438 8.546875 14.238281 8.386719 14 8.386719zM11.601562 8.386719C11.398438 8.386719 11.199219 8.589844 11.199219 8.789062 11.199219 9.027344 11.359375 9.1875 11.601562 9.1875 11.839844 9.1875 12 9.027344 12 8.789062 12 8.546875 11.839844 8.386719 11.601562 8.386719zM14 5.988281C13.800781 5.988281 13.601562 6.1875 13.601562 6.386719 13.601562 6.628906 13.761719 6.789062 14 6.789062 14.238281 6.789062 14.398438 6.628906 14.398438 6.386719 14.398438 6.148438 14.238281 5.988281 14 5.988281zM11.601562 5.988281C11.398438 5.988281 11.199219 6.1875 11.199219 6.386719 11.199219 6.628906 11.359375 6.789062 11.601562 6.789062 11.839844 6.789062 12 6.628906 12 6.386719 12 6.148438 11.839844 5.988281 11.601562 5.988281zM10.398438 9.589844C10.199219 9.589844 10 9.789062 10 9.988281 10 10.226562 10.160156 10.386719 10.398438 10.386719 10.640625 10.386719 10.800781 10.226562 10.800781 9.988281 10.800781 9.746094 10.640625 9.589844 10.398438 9.589844zM10.398438 7.1875C10.199219 7.1875 10 7.386719 10 7.589844 10 7.828125 10.160156 7.988281 10.398438 7.988281 10.640625 7.988281 10.800781 7.828125 10.800781 7.589844 10.800781 7.347656 10.640625 7.1875 10.398438 7.1875zM9.199219 8.386719C9 8.386719 8.800781 8.589844 8.800781 8.789062 8.800781 9.027344 8.960938 9.1875 9.199219 9.1875 9.441406 9.1875 9.601562 9.027344 9.601562 8.789062 9.601562 8.546875 9.441406 8.386719 9.199219 8.386719zM9.199219 5.988281C9 5.988281 8.800781 6.1875 8.800781 6.386719 8.800781 6.628906 8.960938 6.789062 9.199219 6.789062 9.441406 6.789062 9.601562 6.628906 9.601562 6.386719 9.601562 6.148438 9.441406 5.988281 9.199219 5.988281zM15.199219 4.789062C15 4.789062 14.800781 4.988281 14.800781 5.1875 14.800781 5.429688 14.960938 5.589844 15.199219 5.589844 15.441406 5.589844 15.601562 5.429688 15.601562 5.1875 15.601562 4.949219 15.441406 4.789062 15.199219 4.789062zM12.800781 4.789062C12.601562 4.789062 12.398438 4.988281 12.398438 5.1875 12.398438 5.429688 12.558594 5.589844 12.800781 5.589844 13.039062 5.589844 13.199219 5.429688 13.199219 5.1875 13.199219 4.949219 13.039062 4.789062 12.800781 4.789062zM10.398438 4.789062C10.199219 4.789062 10 4.988281 10 5.1875 10 5.429688 10.160156 5.589844 10.398438 5.589844 10.640625 5.589844 10.800781 5.429688 10.800781 5.1875 10.800781 4.949219 10.640625 4.789062 10.398438 4.789062zM10.398438 4.789062"/>
    <path d="M 22.398438 0 L 1.601562 0 C 0.71875 0 0 0.71875 0 1.601562 L 0 22.398438 C 0 23.28125 0.71875 24 1.601562 24 L 22.398438 24 C 23.28125 24 24 23.28125 24 22.398438 L 24 1.601562 C 24 0.71875 23.28125 0 22.398438 0 Z M 23.199219 22.398438 C 23.199219 22.839844 22.839844 23.199219 22.398438 23.199219 L 1.601562 23.199219 C 1.160156 23.199219 0.800781 22.839844 0.800781 22.398438 L 0.800781 1.601562 C 0.800781 1.160156 1.160156 0.800781 1.601562 0.800781 L 22.398438 0.800781 C 22.839844 0.800781 23.199219 1.160156 23.199219 1.601562 Z M 23.199219 22.398438"/>
    <path d="M16 4.800781C16 4.558594 15.839844 4.398438 15.601562 4.398438L8.398438 4.398438C8.160156 4.398438 8 4.558594 8 4.800781L8 12C8 12.070312 8.015625 12.132812 8.039062 12.1875L8.039062 19.199219C8.039062 19.441406 8.199219 19.601562 8.441406 19.601562L15.601562 19.601562C15.839844 19.601562 16 19.441406 16 19.199219zM8.800781 5.199219L15.199219 5.199219 15.199219 11.601562 8.800781 11.601562zM15.199219 18.800781L8.839844 18.800781 8.839844 12.398438 15.199219 12.398438zM2.398438 1.601562C1.960938 1.601562 1.601562 1.960938 1.601562 2.398438 1.601562 2.839844 1.960938 3.199219 2.398438 3.199219 2.839844 3.199219 3.199219 2.839844 3.199219 2.398438 3.199219 1.960938 2.839844 1.601562 2.398438 1.601562zM2.398438 20.800781C1.960938 20.800781 1.601562 21.160156 1.601562 21.601562 1.601562 22.039062 1.960938 22.398438 2.398438 22.398438 2.839844 22.398438 3.199219 22.039062 3.199219 21.601562 3.199219 21.160156 2.839844 20.800781 2.398438 20.800781zM21.601562 1.601562C21.160156 1.601562 20.800781 1.960938 20.800781 2.398438 20.800781 2.839844 21.160156 3.199219 21.601562 3.199219 22.039062 3.199219 22.398438 2.839844 22.398438 2.398438 22.398438 1.960938 22.039062 1.601562 21.601562 1.601562zM21.601562 20.800781C21.160156 20.800781 20.800781 21.160156 20.800781 21.601562 20.800781 22.039062 21.160156 22.398438 21.601562 22.398438 22.039062 22.398438 22.398438 22.039062 22.398438 21.601562 22.398438 21.160156 22.039062 20.800781 21.601562 20.800781zM21.601562 20.800781"/>
    <path d="M 12 17.199219 C 12.238281 17.199219 12.398438 17.039062 12.398438 16.800781 L 12.398438 14.398438 C 12.398438 14.160156 12.238281 14 12 14 C 11.761719 14 11.601562 14.160156 11.601562 14.398438 L 11.601562 16.800781 C 11.601562 17.039062 11.761719 17.199219 12 17.199219 Z M 12 17.199219"/>
</svg>

<svg xmlns="http://www.w3.org/2000/svg" width="32" height="32" viewBox="0 0 24 24">
    <path d="M14 10.79c-.2 0-.398.198-.398.398 0 .242.16.402.398.402.238 0 .398-.16.398-.402 0-.239-.16-.399-.398-.399zm0 0M11.602 10.79c-.204 0-.403.198-.403.398 0 .242.16.402.403.402.238 0 .398-.16.398-.402 0-.239-.16-.399-.398-.399zm0 0M9.2 10.79c-.2 0-.4.198-.4.398 0 .242.16.402.4.402.241 0 .402-.16.402-.402 0-.239-.16-.399-.403-.399zm0 0M15.2 9.59c-.2 0-.4.2-.4.398 0 .239.16.399.4.399.241 0 .402-.16.402-.399 0-.242-.16-.398-.403-.398zm0 0M12.8 9.59c-.198 0-.402.2-.402.398 0 .239.16.399.403.399.238 0 .398-.16.398-.399 0-.242-.16-.398-.398-.398zm0 0M15.2 7.188c-.2 0-.4.199-.4.402 0 .238.16.398.4.398.241 0 .402-.16.402-.398 0-.242-.16-.402-.403-.402zm0 0M12.8 7.188c-.198 0-.402.199-.402.402 0 .238.16.398.403.398.238 0 .398-.16.398-.398 0-.242-.16-.402-.398-.402zm0 0M14 8.387c-.2 0-.398.203-.398.402 0 .238.16.399.398.399.238 0 .398-.16.398-.399 0-.242-.16-.402-.398-.402zm0 0M11.602 8.387c-.204 0-.403.203-.403.402 0 .238.16.399.403.399.238 0 .398-.16.398-.399 0-.242-.16-.402-.398-.402zm0 0M14 5.988c-.2 0-.398.2-.398.399 0 .242.16.402.398.402.238 0 .398-.16.398-.402 0-.239-.16-.399-.398-.399zm0 0M11.602 5.988c-.204 0-.403.2-.403.399 0 .242.16.402.403.402.238 0 .398-.16.398-.402 0-.239-.16-.399-.398-.399zm0 0M10.398 9.59c-.199 0-.398.2-.398.398 0 .239.16.399.398.399.243 0 .403-.16.403-.399 0-.242-.16-.398-.403-.398zm0 0M10.398 7.188c-.199 0-.398.199-.398.402 0 .238.16.398.398.398.243 0 .403-.16.403-.398 0-.242-.16-.402-.403-.402zm0 0M9.2 8.387c-.2 0-.4.203-.4.402 0 .238.16.399.4.399.241 0 .402-.16.402-.399 0-.242-.16-.402-.403-.402zm0 0M9.2 5.988c-.2 0-.4.2-.4.399 0 .242.16.402.4.402.241 0 .402-.16.402-.402 0-.239-.16-.399-.403-.399zm0 0M15.2 4.79c-.2 0-.4.198-.4.397 0 .243.16.403.4.403.241 0 .402-.16.402-.402 0-.239-.16-.399-.403-.399zm0 0M12.8 4.79c-.198 0-.402.198-.402.397 0 .243.16.403.403.403.238 0 .398-.16.398-.402 0-.239-.16-.399-.398-.399zm0 0M10.398 4.79c-.199 0-.398.198-.398.397 0 .243.16.403.398.403.243 0 .403-.16.403-.402 0-.239-.16-.399-.403-.399zm0 0"/>
    <path d="M22.398 0H1.602C.719 0 0 .719 0 1.602v20.796C0 23.281.719 24 1.602 24h20.796c.883 0 1.602-.719 1.602-1.602V1.602C24 .719 23.281 0 22.398 0zm.801 22.398c0 .442-.36.801-.8.801H1.601c-.442 0-.801-.36-.801-.8V1.601C.8 1.16 1.16.8 1.6.8h20.797c.442 0 .801.36.801.8zm0 0"/>
    <path d="M16 4.8c0-.241-.16-.402-.398-.402H8.398c-.238 0-.398.16-.398.403V12c0 .07.016.133.04.188v7.011c0 .242.16.403.401.403h7.16c.239 0 .399-.16.399-.403zm-7.2.4h6.4v6.402H8.8zm6.4 13.6H8.84v-6.402h6.36zm0 0M2.398 1.602a.8.8 0 0 0-.796.796c0 .442.359.801.796.801.442 0 .801-.36.801-.8a.801.801 0 0 0-.8-.797zm0 0M2.398 20.8a.801.801 0 0 0-.796.802.8.8 0 0 0 .796.796c.442 0 .801-.359.801-.796 0-.442-.36-.801-.8-.801zm0 0M21.602 1.602c-.442 0-.801.359-.801.796 0 .442.36.801.8.801.438 0 .797-.36.797-.8a.8.8 0 0 0-.796-.797zm0 0M21.602 20.8c-.442 0-.801.36-.801.802 0 .437.36.796.8.796a.8.8 0 0 0 .797-.796c0-.442-.359-.801-.796-.801zm0 0"/>
    <path d="M12 17.2c.238 0 .398-.16.398-.4v-2.402c0-.238-.16-.398-.398-.398-.238 0-.398.16-.398.398v2.403c0 .238.16.398.398.398zm0 0"/>
</svg>
